X:81
T:Polka
R:Polka
O:France
M:4/4
K:G
d^cde d=cBA|G2G2GFGA\
|1B2B2BABc|A2A2A4:|2B2B2AGFA|G2F2G4||\
K:D
A2A2AGFA|A2B2A4|GAGF EFGA\
|1B2c2B2A2:|2BABcd4||
